src/assets/images/work3.svg

<svg width="51" height="61" viewBox="0 0 51 61" fill="none" xmlns="http://www.w3.org/2000/svg">
<path d="M16.9531 48.71L10.5996 36.003L24.0125 9.17725V32.0568C23.2693 32.3812 22.6604 32.9516 22.2883 33.6721C21.9162 34.3926 21.8035 35.2192 21.9691 36.013C22.1348 36.8068 22.5688 37.5194 23.198 38.0309C23.8273 38.5424 24.6135 38.8216 25.4244 38.8216C26.2353 38.8216 27.0215 38.5424 27.6508 38.0309C28.28 37.5194 28.714 36.8068 28.8796 36.013C29.0453 35.2192 28.9326 34.3926 28.5605 33.6721C28.1884 32.9516 27.5795 32.3812 26.8363 32.0568V9.17725L40.2492 36.003L33.8957 48.71H16.9531ZM15.5412 52.9457H35.3076V60.0051H15.5412V52.9457Z" fill="#FFBA00"/>
<path d="M13.4233 48.71H37.4254V52.9456H13.4233V48.71Z" fill="#FF8E00"/>
<path d="M23.3065 0.706055H27.5421V4.94171H23.3065V0.706055ZM0.716309 25.414H4.95196V29.6497H0.716309V25.414ZM45.8966 25.414H50.1323V29.6497H45.8966V25.414Z" fill="#6499F3"/>
<path d="M48.0146 4.94171C49.1842 4.94171 50.1324 3.99352 50.1324 2.82388C50.1324 1.65424 49.1842 0.706055 48.0146 0.706055C46.8449 0.706055 45.8967 1.65424 45.8967 2.82388C45.8967 3.99352 46.8449 4.94171 48.0146 4.94171Z" fill="#6499F3"/>
<path d="M2.83413 4.94171C4.00378 4.94171 4.95196 3.99352 4.95196 2.82388C4.95196 1.65424 4.00378 0.706055 2.83413 0.706055C1.66449 0.706055 0.716309 1.65424 0.716309 2.82388C0.716309 3.99352 1.66449 4.94171 2.83413 4.94171Z" fill="#6499F3"/>
<path d="M27.4683 8.86175C27.3973 8.7193 27.2803 8.60502 27.1362 8.53746C26.9921 8.4699 26.8294 8.45302 26.6744 8.48956C26.5195 8.5261 26.3815 8.61392 26.2828 8.73876C26.1841 8.8636 26.1304 9.01814 26.1306 9.17731V32.0569C26.1306 32.1936 26.1703 32.3273 26.2449 32.4418C26.3195 32.5563 26.4257 32.6468 26.5506 32.7021C27.1458 32.9609 27.6337 33.4169 27.9322 33.9933C28.2306 34.5697 28.3214 35.2313 28.1892 35.8667C28.0571 36.5022 27.71 37.0727 27.2065 37.4823C26.7029 37.8918 26.0737 38.1154 25.4246 38.1154C24.7756 38.1154 24.1463 37.8918 23.6428 37.4823C23.1393 37.0727 22.7922 36.5022 22.66 35.8667C22.5279 35.2313 22.6186 34.5697 22.9171 33.9933C23.2155 33.4169 23.7034 32.9609 24.2987 32.7021C24.4236 32.6468 24.5298 32.5563 24.6044 32.4418C24.6789 32.3273 24.7186 32.1936 24.7187 32.0569V9.17731C24.7185 9.0184 24.6647 8.8642 24.5661 8.73965C24.4674 8.6151 24.3296 8.52749 24.1749 8.49099C24.0202 8.45449 23.8578 8.47124 23.7138 8.53852C23.5699 8.6058 23.4528 8.71969 23.3816 8.86175L9.96874 35.6875C9.91978 35.7855 9.89429 35.8936 9.89429 36.0031C9.89429 36.1126 9.91978 36.2207 9.96874 36.3187L15.8111 48.0041H13.4236C13.2364 48.0041 13.0568 48.0785 12.9244 48.2109C12.7921 48.3433 12.7177 48.5228 12.7177 48.7101V52.9457C12.7177 53.1329 12.7921 53.3125 12.9244 53.4449C13.0568 53.5773 13.2364 53.6517 13.4236 53.6517H14.8355V60.0051C14.8355 60.1924 14.9099 60.3719 15.0423 60.5043C15.1747 60.6367 15.3542 60.7111 15.5414 60.7111C15.7287 60.7111 15.9082 60.6367 16.0406 60.5043C16.173 60.3719 16.2474 60.1924 16.2474 60.0051V53.6517H34.6019V60.0051C34.6019 60.1924 34.6763 60.3719 34.8086 60.5043C34.941 60.6367 35.1206 60.7111 35.3078 60.7111C35.495 60.7111 35.6746 60.6367 35.807 60.5043C35.9394 60.3719 36.0138 60.1924 36.0138 60.0051V53.6517H37.4256C37.6129 53.6517 37.7924 53.5773 37.9248 53.4449C38.0572 53.3125 38.1316 53.1329 38.1316 52.9457V48.7101C38.1316 48.5228 38.0572 48.3433 37.9248 48.2109C37.7924 48.0785 37.6129 48.0041 37.4256 48.0041H35.0382L40.8812 36.3187C40.9302 36.2207 40.9557 36.1126 40.9557 36.0031C40.9557 35.8936 40.9302 35.7855 40.8812 35.6875L27.4683 8.86175ZM36.7197 52.2398H14.1296V49.416H36.7197V52.2398ZM33.4597 48.0041H17.3896L11.3891 36.0031L23.3068 12.1677V31.6263C22.4993 32.0925 21.8682 32.8121 21.5114 33.6735C21.1546 34.535 21.092 35.4901 21.3333 36.3907C21.5746 37.2914 22.1064 38.0872 22.8461 38.6548C23.5859 39.2224 24.4922 39.5301 25.4246 39.5301C26.357 39.5301 27.2634 39.2224 28.0031 38.6548C28.7429 38.0872 29.2746 37.2914 29.516 36.3907C29.7573 35.4901 29.6947 34.535 29.3379 33.6735C28.981 32.8121 28.35 32.0925 27.5425 31.6263V12.1677L39.4602 36.0031L33.4597 48.0041Z" fill="#32233F"/>
<path d="M50.1325 24.708H48.7043C48.5861 20.0542 47.0679 15.5441 44.3478 11.7662C41.6277 7.98824 37.832 5.11792 33.456 3.52972H45.2911C45.4629 4.19518 45.8716 4.77513 46.4404 5.16087C47.0092 5.5466 47.6992 5.71164 48.381 5.62504C49.0628 5.53844 49.6896 5.20614 50.144 4.69045C50.5983 4.17476 50.849 3.51106 50.849 2.82377C50.849 2.13649 50.5983 1.4728 50.144 0.9571C49.6896 0.441405 49.0628 0.109114 48.381 0.0225132C47.6992 -0.0640879 47.0092 0.100947 46.4404 0.486682C45.8716 0.872417 45.4629 1.45237 45.2911 2.11783H28.2483V0.705949C28.2483 0.518721 28.1739 0.339162 28.0415 0.206772C27.9091 0.0743827 27.7295 6.87521e-06 27.5423 6.87521e-06H23.3067C23.1194 6.87521e-06 22.9399 0.0743827 22.8075 0.206772C22.6751 0.339162 22.6007 0.518721 22.6007 0.705949V2.11783H5.55787C5.38605 1.45237 4.97742 0.872417 4.40859 0.486682C3.83976 0.100947 3.14977 -0.0640879 2.46796 0.0225132C1.78615 0.109114 1.15933 0.441405 0.704997 0.9571C0.25066 1.4728 0 2.13649 0 2.82377C0 3.51106 0.25066 4.17476 0.704997 4.69045C1.15933 5.20614 1.78615 5.53844 2.46796 5.62504C3.14977 5.71164 3.83976 5.5466 4.40859 5.16087C4.97742 4.77513 5.38605 4.19518 5.55787 3.52972H17.393C13.017 5.11792 9.22131 7.98824 6.50121 11.7662C3.7811 15.5441 2.26288 20.0542 2.14464 24.708H0.716519C0.529292 24.708 0.349733 24.7824 0.217343 24.9147C0.0849532 25.0471 0.0105773 25.2267 0.0105773 25.4139V29.6496C0.0105773 29.8368 0.0849532 30.0164 0.217343 30.1488C0.349733 30.2811 0.529292 30.3555 0.716519 30.3555H4.95217C5.1394 30.3555 5.31896 30.2811 5.45135 30.1488C5.58374 30.0164 5.65811 29.8368 5.65811 29.6496V25.4139C5.65811 25.2267 5.58374 25.0471 5.45135 24.9147C5.31896 24.7824 5.1394 24.708 4.95217 24.708H3.55652C3.69817 19.5104 5.69684 14.5354 9.19043 10.6844C12.684 6.83335 17.4414 4.36105 22.6007 3.71538V4.9416C22.6007 5.12883 22.6751 5.30839 22.8075 5.44078C22.9399 5.57317 23.1194 5.64754 23.3067 5.64754H27.5423C27.7295 5.64754 27.9091 5.57317 28.0415 5.44078C28.1739 5.30839 28.2483 5.12883 28.2483 4.9416V3.71538C33.4076 4.36105 38.165 6.83335 41.6586 10.6844C45.1521 14.5354 47.1508 19.5104 47.2924 24.708H45.8968C45.7096 24.708 45.53 24.7824 45.3976 24.9147C45.2652 25.0471 45.1909 25.2267 45.1909 25.4139V29.6496C45.1909 29.8368 45.2652 30.0164 45.3976 30.1488C45.53 30.2811 45.7096 30.3555 45.8968 30.3555H50.1325C50.3197 30.3555 50.4992 30.2811 50.6316 30.1488C50.764 30.0164 50.8384 29.8368 50.8384 29.6496V25.4139C50.8384 25.2267 50.764 25.0471 50.6316 24.9147C50.4992 24.7824 50.3197 24.708 50.1325 24.708ZM4.24623 28.9436H1.42246V26.1199H4.24623V28.9436ZM48.0146 1.41189C48.2939 1.41189 48.5668 1.4947 48.799 1.64984C49.0312 1.80498 49.2122 2.02548 49.319 2.28347C49.4259 2.54146 49.4539 2.82534 49.3994 3.09922C49.3449 3.3731 49.2104 3.62467 49.013 3.82213C48.8155 4.01958 48.564 4.15405 48.2901 4.20853C48.0162 4.26301 47.7323 4.23505 47.4743 4.12819C47.2163 4.02132 46.9958 3.84036 46.8407 3.60818C46.6856 3.37599 46.6027 3.10302 46.6027 2.82377C46.6031 2.44943 46.752 2.09053 47.0167 1.82583C47.2814 1.56114 47.6403 1.41226 48.0146 1.41189ZM2.83435 4.23566C2.5551 4.23566 2.28213 4.15285 2.04994 3.99771C1.81776 3.84257 1.6368 3.62207 1.52993 3.36408C1.42307 3.10609 1.39511 2.82221 1.44959 2.54833C1.50407 2.27445 1.63854 2.02288 1.83599 1.82542C2.03345 1.62797 2.28502 1.4935 2.5589 1.43902C2.83278 1.38454 3.11666 1.4125 3.37465 1.51936C3.63264 1.62623 3.85314 1.80719 4.00828 2.03937C4.16342 2.27156 4.24623 2.54453 4.24623 2.82377C4.24586 3.19812 4.09698 3.55702 3.83228 3.82171C3.56759 4.08641 3.20869 4.23529 2.83435 4.23566ZM26.8364 4.23566H24.0126V1.41189H26.8364V4.23566ZM49.4265 28.9436H46.6027V26.1199H49.4265V28.9436Z" fill="#32233F"/>
</svg>

<svg width="51" height="61" fill="none" xmlns="http://www.w3.org/2000/svg"><path d="M16.953 48.71 10.6 36.003 24.012 9.177v22.88a3.53 3.53 0 1 0 2.824 0V9.177L40.25 36.003 33.896 48.71H16.953zm-1.412 4.236h19.767v7.06H15.54v-7.06z" fill="#FFBA00"/><path d="M13.423 48.71h24.002v4.236H13.423V48.71z" fill="#FF8E00"/><path d="M23.306.706h4.236v4.236h-4.236V.706zM.716 25.414h4.236v4.236H.716v-4.236zm45.18 0h4.236v4.236h-4.235v-4.236zM48.015 4.942a2.118 2.118 0 1 0 0-4.236 2.118 2.118 0 0 0 0 4.236zM2.834 4.942a2.118 2.118 0 1 0 0-4.236 2.118 2.118 0 0 0 0 4.236z" fill="#6499F3"/><path d="M27.468 8.862a.706.706 0 0 0-1.337.315v22.88a.705.705 0 0 0 .42.645 2.824 2.824 0 1 1-2.252 0 .706.706 0 0 0 .42-.645V9.177a.707.707 0 0 0-1.337-.315L9.969 35.687a.706.706 0 0 0 0 .632l5.842 11.685h-2.387a.706.706 0 0 0-.706.706v4.236a.706.706 0 0 0 .706.706h1.412v6.353a.706.706 0 1 0 1.411 0v-6.353h18.355v6.353a.706.706 0 0 0 1.412 0v-6.353h1.412a.706.706 0 0 0 .706-.706V48.71a.706.706 0 0 0-.706-.706h-2.388l5.843-11.685a.706.706 0 0 0 0-.632L27.468 8.863zM36.72 52.24H14.13v-2.824h22.59v2.824zm-3.26-4.236H17.39l-6-12 11.917-23.836v19.458a4.235 4.235 0 1 0 4.236 0V12.168L39.46 36.003l-6 12.001z" fill="#32233F"/><path d="M50.133 24.708h-1.429A23.155 23.155 0 0 0 33.456 3.53h11.835a2.824 2.824 0 1 0 0-1.412H28.248V.706A.706.706 0 0 0 27.542 0h-4.235a.706.706 0 0 0-.706.706v1.412H5.558a2.824 2.824 0 1 0 0 1.412h11.835A23.155 23.155 0 0 0 2.145 24.708H.717a.706.706 0 0 0-.706.706v4.236a.706.706 0 0 0 .706.706h4.235a.706.706 0 0 0 .706-.706v-4.236a.706.706 0 0 0-.706-.706H3.557A21.754 21.754 0 0 1 22.6 3.715v1.227a.706.706 0 0 0 .706.706h4.235a.706.706 0 0 0 .706-.706V3.715a21.754 21.754 0 0 1 19.044 20.993h-1.395a.706.706 0 0 0-.706.706v4.236a.706.706 0 0 0 .706.706h4.236a.706.706 0 0 0 .705-.706v-4.236a.706.706 0 0 0-.706-.706zM4.245 28.944H1.422V26.12h2.824v2.824zM48.015 1.412a1.412 1.412 0 1 1 0 2.823 1.412 1.412 0 0 1 0-2.823zM2.835 4.236a1.412 1.412 0 1 1 0-2.824 1.412 1.412 0 0 1 0 2.824zm24.001 0h-2.823V1.412h2.823v2.824zm22.59 24.708h-2.823V26.12h2.823v2.824z" fill="#32233F"/></svg>
